X:16012
%11381
T:MuiÃ±eira d'Ibias
R:muiÃ±eira
C:Trad.
Z:MÃ©todu de Gaita
M:6/8
L:1/8
Q:2/4=100
K:Cmaj
({DED}G,) ^F, G,
|:CB,C DEF|G2 G CDC|
~B, A, G F ~E D|~EDC G, ^F, G,|CB,C DEF|
~G2 G CDC|~B, A, G F ~E D| [1 C3 G, ^F, G,:|
 [2 C3 GAG||
%Error : Single colon in bar
FGF DEF|~EDC CB,C|
CB,C CB,
